X:12
T:GB/7c/12 Jack Goes Up To London
%%VWML:GB-7c-12-0
F:http://www.vwml.org/record/GB/7c/12
T:Version 1 of 2
C:Mr. Greenfield, Lurgashall, Sussex, X. 10 
P:F.W. J(ekyll) & G.S.K. B(utterworth)
C:Transcribed by Simon Furey and Lewis Jones
L:1/4
M:4/4
I:linebreak $
K:Dmix
D | G G B d | A A/G/ F A | B B E G | A A/G/ F !fermata!D :| B | c d !fermata!e c |$
B A !fermata!d d | e d c B | A d G G/F/ | E E/E/ D D/D/ | A A/G/ F !fermata!D | A A/B/ c d/G/ | F E D |]

